SF_Symbols/cross.svg

<?xml version="1.0" encoding="UTF-8"?>
<svg xmlns="http://www.w3.org/2000/svg" xmlns:xlink="http://www.w3.org/1999/xlink" width="24" height="24" viewBox="0 0 24 24" version="1.1">
<g id="surface1">
<path style=" stroke:none;fill-rule:nonzero;fill:rgb(100%,100%,100%);fill-opacity:1;" d="M 0.824219 14.167969 C 0.824219 15.144531 1.058594 15.878906 1.53125 16.363281 C 2.011719 16.84375 2.734375 17.082031 3.699219 17.082031 L 7.394531 17.082031 L 7.394531 20.78125 C 7.394531 21.746094 7.636719 22.464844 8.113281 22.9375 C 8.601562 23.417969 9.332031 23.65625 10.3125 23.65625 L 13.6875 23.65625 C 14.667969 23.65625 15.394531 23.417969 15.875 22.9375 C 16.359375 22.464844 16.605469 21.746094 16.605469 20.78125 L 16.605469 17.082031 L 20.300781 17.082031 C 21.265625 17.082031 21.984375 16.84375 22.457031 16.363281 C 22.9375 15.878906 23.175781 15.144531 23.175781 14.167969 L 23.175781 10.792969 C 23.175781 9.8125 22.9375 9.082031 22.457031 8.605469 C 21.984375 8.117188 21.265625 7.875 20.300781 7.875 L 16.605469 7.875 L 16.605469 4.167969 C 16.605469 3.203125 16.359375 2.484375 15.875 2.011719 C 15.394531 1.53125 14.667969 1.292969 13.6875 1.292969 L 10.3125 1.292969 C 9.332031 1.292969 8.601562 1.53125 8.113281 2.011719 C 7.636719 2.484375 7.394531 3.203125 7.394531 4.167969 L 7.394531 7.875 L 3.699219 7.875 C 2.734375 7.875 2.011719 8.117188 1.53125 8.605469 C 1.058594 9.082031 0.824219 9.8125 0.824219 10.792969 Z M 2.5 14.136719 L 2.5 10.824219 C 2.5 10.398438 2.609375 10.082031 2.824219 9.875 C 3.039062 9.660156 3.359375 9.550781 3.792969 9.550781 L 9.074219 9.550781 L 9.074219 4.261719 C 9.074219 3.828125 9.175781 3.507812 9.386719 3.292969 C 9.601562 3.078125 9.921875 2.96875 10.34375 2.96875 L 13.65625 2.96875 C 14.078125 2.96875 14.394531 3.078125 14.605469 3.292969 C 14.820312 3.507812 14.925781 3.828125 14.925781 4.261719 L 14.925781 9.550781 L 20.207031 9.550781 C 20.640625 9.550781 20.960938 9.660156 21.175781 9.875 C 21.390625 10.082031 21.5 10.398438 21.5 10.824219 L 21.5 14.136719 C 21.5 14.558594 21.390625 14.878906 21.175781 15.09375 C 20.960938 15.300781 20.640625 15.40625 20.207031 15.40625 L 14.925781 15.40625 L 14.925781 20.699219 C 14.925781 21.121094 14.820312 21.441406 14.605469 21.65625 C 14.394531 21.871094 14.078125 21.980469 13.65625 21.980469 L 10.34375 21.980469 C 9.921875 21.980469 9.601562 21.871094 9.386719 21.65625 C 9.175781 21.441406 9.074219 21.121094 9.074219 20.699219 L 9.074219 15.40625 L 3.792969 15.40625 C 3.359375 15.40625 3.039062 15.300781 2.824219 15.09375 C 2.609375 14.878906 2.5 14.558594 2.5 14.136719 Z M 2.5 14.136719 "/>
</g>
</svg>

<svg xmlns="http://www.w3.org/2000/svg" width="24" height="24"><path style="stroke:none;fill-rule:nonzero;fill:#fff;fill-opacity:1" d="M.824 14.168c0 .977.235 1.71.707 2.195.48.48 1.203.719 2.168.719h3.696v3.7c0 .964.242 1.683.718 2.155.489.481 1.219.72 2.2.72h3.374c.981 0 1.708-.239 2.188-.72.484-.472.73-1.19.73-2.156v-3.699h3.696c.965 0 1.683-.238 2.156-.719.48-.484.719-1.218.719-2.195v-3.375c0-.98-.238-1.711-.719-2.188-.473-.488-1.191-.73-2.156-.73h-3.696V4.168c0-.965-.246-1.684-.73-2.156-.48-.48-1.207-.719-2.188-.719h-3.374c-.981 0-1.711.238-2.2.719-.476.472-.718 1.191-.718 2.156v3.707H3.699c-.965 0-1.687.242-2.168.73-.472.477-.707 1.207-.707 2.188Zm1.676-.031v-3.313c0-.426.11-.742.324-.949.215-.215.535-.324.969-.324h5.281V4.26c0-.433.102-.753.313-.968.215-.215.535-.324.957-.324h3.312c.422 0 .739.11.95.324.214.215.32.535.32.969V9.55h5.281c.434 0 .754.11.969.324.215.207.324.523.324.95v3.312c0 .422-.11.742-.324.957-.215.207-.535.312-.969.312h-5.281V20.7c0 .422-.106.742-.32.957-.211.215-.528.324-.95.324h-3.312c-.422 0-.742-.109-.957-.324-.211-.215-.313-.535-.313-.957v-5.293H3.793c-.434 0-.754-.105-.969-.312-.215-.215-.324-.535-.324-.957Zm0 0"/></svg>
